build/img/category2__img_10.svg

<svg width="64" height="64" viewBox="0 0 64 64" fill="none" xmlns="http://www.w3.org/2000/svg">
<g opacity="0.4" clip-path="url(#clip0)">
<path d="M30.9541 21.825H33.0114V23.8823H30.9541V21.825Z" fill="#333333"/>
<path d="M34.04 31.0828H36.0973V33.1401H34.04V31.0828Z" fill="#333333"/>
<path d="M27.8682 29.0256H29.9255V31.083H27.8682V29.0256Z" fill="#333333"/>
<path d="M29.9258 33.1401H31.9831V35.1974H29.9258V33.1401Z" fill="#333333"/>
<path d="M35.0684 23.8823H37.1257V25.9396H35.0684V23.8823Z" fill="#333333"/>
<path d="M28.8965 18.739H30.9538V20.7963H28.8965V18.739Z" fill="#333333"/>
<path d="M26.8389 24.9109H28.8962V26.9682H26.8389V24.9109Z" fill="#333333"/>
<path d="M35.0684 19.7676H37.1257V21.8249H35.0684V19.7676Z" fill="#333333"/>
<path d="M31.9824 26.9683H34.0397V29.0256H31.9824V26.9683Z" fill="#333333"/>
<path d="M17.5811 29.0256H19.6384V31.083H17.5811V29.0256Z" fill="#333333"/>
<path d="M16.5527 24.9109H18.61V26.9682H16.5527V24.9109Z" fill="#333333"/>
<path d="M19.6387 33.1401H21.696V35.1974H19.6387V33.1401Z" fill="#333333"/>
<path d="M18.6104 20.7964H20.6677V22.8537H18.6104V20.7964Z" fill="#333333"/>
<path d="M44.3262 29.0256H46.3835V31.083H44.3262V29.0256Z" fill="#333333"/>
<path d="M45.3555 24.9109H47.4128V26.9682H45.3555V24.9109Z" fill="#333333"/>
<path d="M42.2695 33.1401H44.3268V35.1974H42.2695V33.1401Z" fill="#333333"/>
<path d="M43.2979 20.7964H45.3552V22.8537H43.2979V20.7964Z" fill="#333333"/>
<path d="M42.2696 16.6815C41.0777 16.6815 39.9295 16.9141 38.842 17.3496C38.7732 17.2762 38.7064 17.2014 38.6346 17.1301C43.2098 16.0798 45.3555 12.6382 45.3555 6.39496V5.3663H44.3269C43.9461 5.3663 43.579 5.37685 43.2204 5.39342C42.8507 2.49128 41.0269 0.611268 40.9395 0.524374L40.4152 0L39.7517 0.330999C39.2157 0.599715 37.2117 1.66253 36.0062 3.13118C34.4095 1.14468 32.4893 0.346569 32.3647 0.296342L31.983 0.144153L31.6012 0.296342C31.4762 0.346569 29.5555 1.14368 27.9588 3.13118C26.7533 1.66353 24.7507 0.599715 24.2138 0.332506L23.5503 0.00100455L23.0254 0.525881C22.939 0.612272 21.1143 2.49229 20.7451 5.39443C20.387 5.37685 20.0198 5.3663 19.6391 5.3663H18.6104V6.39496C18.6104 12.6382 20.7561 16.0798 25.3319 17.1311C25.2595 17.2024 25.1927 17.2772 25.1239 17.3506C24.0365 16.9141 22.8898 16.6815 21.6964 16.6815C16.5923 16.6815 12.4385 20.8353 12.4385 25.9395V26.4116C12.4385 27.5939 12.662 28.7512 13.101 29.8507L16.0624 37.2547H14.4958V44.4553L18.8143 63.9998H45.1521L49.4455 44.6788L49.4702 37.2547H47.9036L50.865 29.8507C51.3045 28.7512 51.5275 27.595 51.5275 26.4116V25.9395C51.5275 20.8353 47.3737 16.6815 42.2696 16.6815ZM39.1168 24.2774L37.2634 37.2547H26.7031L24.8492 24.2764C24.805 23.9675 24.7824 23.6521 24.7824 23.3362C24.7824 19.6671 27.7679 16.6815 31.437 16.6815H32.5294C36.1986 16.6815 39.1836 19.6671 39.1836 23.3362C39.1836 23.6521 39.161 23.9675 39.1168 24.2774ZM37.2252 15.3013L36.3829 15.5358C35.3889 15.0431 34.2914 14.7357 33.1292 14.6554C33.5229 12.5478 35.2905 7.82995 43.2756 7.44873C43.0647 12.4529 41.2655 14.7518 37.2252 15.3013ZM39.9591 2.56361C40.3956 3.17437 40.9963 4.23618 41.1791 5.5868C39.8697 5.77816 38.73 6.08756 37.7345 6.48135C37.5853 5.96501 37.409 5.47881 37.2016 5.0363C37.516 4.27084 38.7823 3.26378 39.9591 2.56361ZM31.981 2.39283C32.8831 2.87803 35.1081 4.38435 35.8404 7.42713C33.8605 8.65519 32.6826 10.2524 31.983 11.7166C31.2838 10.2534 30.105 8.65519 28.1245 7.42713C28.8568 4.3728 31.0739 2.87703 31.981 2.39283ZM24.0109 2.56662C25.1867 3.26679 26.4509 4.27184 26.7648 5.0363C26.5569 5.47881 26.3801 5.96501 26.2319 6.48135C25.2369 6.08756 24.0973 5.77816 22.7888 5.5868C22.9732 4.24723 23.5749 3.18141 24.0109 2.56662ZM26.8839 15.3309L26.7402 15.3013C22.6994 14.7518 20.9003 12.4529 20.6883 7.44873C28.674 7.82995 30.442 12.5463 30.8353 14.6554C29.6745 14.7357 28.5791 15.0411 27.5876 15.5328L26.8839 15.3309ZM15.0111 29.0872C14.6686 28.2313 14.4958 27.3323 14.4958 26.4116V25.9395C14.4958 21.969 17.7259 18.7388 21.6964 18.7388C22.4383 18.7388 23.155 18.8594 23.8451 19.0764C23.1354 20.3366 22.7251 21.7892 22.7251 23.3362C22.7251 23.7485 22.7552 24.1644 22.8125 24.5682L24.6252 37.2547H18.2784L15.0111 29.0872ZM47.4128 44.3423L43.5021 61.9425H20.4643L16.5531 44.3423V39.312H47.4128V44.3423ZM49.4702 26.4116C49.4702 27.3313 49.2974 28.2313 48.9548 29.0862L45.688 37.2547H39.3413L41.1535 24.5693C41.2113 24.1644 41.2409 23.7495 41.2409 23.3362C41.2409 21.7892 40.8305 20.3366 40.1208 19.0754C40.8109 18.8594 41.5282 18.7388 42.2696 18.7388C46.24 18.7388 49.4702 21.969 49.4702 25.9395V26.4116Z" fill="#333333"/>
<path d="M31.9825 55.7706C33.6842 55.7706 35.0684 54.3863 35.0684 52.6846C35.0684 50.9834 33.6842 49.5986 31.9825 49.5986C30.2813 49.5986 28.8965 50.9834 28.8965 52.6846C28.8965 54.3863 30.2813 55.7706 31.9825 55.7706ZM31.9825 51.656C32.5495 51.656 33.0111 52.118 33.0111 52.6846C33.0111 53.2517 32.5495 53.7133 31.9825 53.7133C31.4159 53.7133 30.9538 53.2517 30.9538 52.6846C30.9538 52.118 31.4159 51.656 31.9825 51.656Z" fill="#333333"/>
<path d="M23.7539 55.7706C25.4557 55.7706 26.8399 54.3863 26.8399 52.6846C26.8399 50.9834 25.4557 49.5986 23.7539 49.5986C22.0527 49.5986 20.668 50.9834 20.668 52.6846C20.668 54.3863 22.0527 55.7706 23.7539 55.7706ZM23.7539 51.656C24.321 51.656 24.7826 52.118 24.7826 52.6846C24.7826 53.2517 24.321 53.7133 23.7539 53.7133C23.1874 53.7133 22.7253 53.2517 22.7253 52.6846C22.7253 52.118 23.1874 51.656 23.7539 51.656Z" fill="#333333"/>
<path d="M40.212 55.7706C41.9137 55.7706 43.2979 54.3863 43.2979 52.6846C43.2979 50.9834 41.9137 49.5986 40.212 49.5986C38.5107 49.5986 37.126 50.9834 37.126 52.6846C37.126 54.3863 38.5107 55.7706 40.212 55.7706ZM40.212 51.656C40.779 51.656 41.2406 52.118 41.2406 52.6846C41.2406 53.2517 40.779 53.7133 40.212 53.7133C39.6454 53.7133 39.1833 53.2517 39.1833 52.6846C39.1833 52.118 39.6454 51.656 40.212 51.656Z" fill="#333333"/>
</g>
<defs>
<clipPath id="clip0">
<rect width="64" height="64" fill="white"/>
</clipPath>
</defs>
</svg>

<svg width="64" height="64" fill="none" xmlns="http://www.w3.org/2000/svg"><g opacity=".4" clip-path="url(#clip0)" fill="#333"><path d="M30.954 21.825h2.057v2.057h-2.057v-2.057zm3.086 9.258h2.057v2.057H34.04v-2.057zm-6.172-2.057h2.058v2.057h-2.058v-2.057zm2.058 4.114h2.057v2.057h-2.057V33.14zm5.142-9.258h2.058v2.058h-2.058v-2.058zm-6.172-5.143h2.058v2.057h-2.058V18.74zm-2.057 6.171h2.057v2.058H26.84v-2.057zm8.229-5.142h2.058v2.057h-2.058v-2.057zm-3.086 7.2h2.058v2.058h-2.058v-2.058zm-14.401 2.058h2.057v2.057h-2.057v-2.057zm-1.028-4.116h2.057v2.058h-2.057v-2.057zm3.086 8.23h2.057v2.057h-2.057V33.14zM18.61 20.796h2.058v2.058H18.61v-2.058zm25.716 8.23h2.057v2.057h-2.057v-2.057zm1.029-4.116h2.058v2.058h-2.057v-2.057zm-3.085 8.23h2.057v2.057H42.27V33.14zm1.028-12.344h2.057v2.058h-2.057v-2.058z"/><path d="M42.27 16.681c-1.192 0-2.34.233-3.428.669-.069-.074-.136-.149-.207-.22 4.575-1.05 6.72-4.492 6.72-10.735V5.366h-1.028c-.38 0-.748.01-1.107.027-.37-2.902-2.193-4.782-2.28-4.869L40.415 0l-.663.331c-.536.269-2.54 1.332-3.746 2.8C34.41 1.145 32.49.347 32.365.296l-.382-.152-.382.152c-.125.05-2.046.848-3.642 2.835C26.753 1.664 24.75.6 24.214.333L23.55 0l-.525.525c-.086.086-1.91 1.966-2.28 4.868a22.48 22.48 0 00-1.106-.028H18.61v1.029c0 6.243 2.146 9.685 6.722 10.736-.073.071-.14.146-.208.22a9.143 9.143 0 00-3.428-.67c-5.104 0-9.258 4.154-9.258 9.258v.473c0 1.182.224 2.34.663 3.439l2.961 7.404h-1.566v7.2L18.814 64h26.338l4.294-19.321.024-7.424h-1.566l2.961-7.404c.44-1.1.663-2.256.663-3.44v-.472c0-5.104-4.154-9.258-9.258-9.258zm-3.153 7.596l-1.854 12.978h-10.56L24.85 24.276a6.663 6.663 0 016.588-7.595h1.092a6.662 6.662 0 016.588 7.596zm-1.892-8.976l-.842.235a8.65 8.65 0 00-3.254-.88c.394-2.108 2.162-6.826 10.147-7.207-.211 5.004-2.01 7.303-6.05 7.852zM39.96 2.564c.437.61 1.037 1.672 1.22 3.023-1.31.191-2.449.5-3.445.894a9.875 9.875 0 00-.532-1.445c.314-.765 1.58-1.772 2.757-2.472zm-7.978-.171c.902.485 3.127 1.991 3.86 5.034a10.128 10.128 0 00-3.858 4.29 10.13 10.13 0 00-3.858-4.29c.732-3.054 2.949-4.55 3.856-5.034zm-7.97.174c1.176.7 2.44 1.705 2.754 2.47a9.705 9.705 0 00-.533 1.444 15.361 15.361 0 00-3.443-.894c.184-1.34.786-2.406 1.222-3.02zm2.873 12.764l-.144-.03c-4.04-.55-5.84-2.848-6.052-7.852 7.986.381 9.754 5.097 10.147 7.206a8.63 8.63 0 00-3.247.878l-.704-.202zM15.01 29.087a7.165 7.165 0 01-.515-2.675v-.473c0-3.97 3.23-7.2 7.2-7.2.742 0 1.459.12 2.15.337a8.657 8.657 0 00-1.034 5.492l1.813 12.687h-6.347l-3.267-8.168zm32.402 15.255l-3.91 17.6H20.463l-3.91-17.6v-5.03h30.859v5.03zm2.057-17.93c0 .92-.173 1.82-.515 2.674l-3.267 8.169H39.34l1.813-12.686a8.664 8.664 0 00-1.033-5.494 7.166 7.166 0 012.149-.336c3.97 0 7.2 3.23 7.2 7.2v.473z"/><path d="M31.983 55.77a3.09 3.09 0 003.085-3.085 3.09 3.09 0 00-3.085-3.086 3.09 3.09 0 00-3.087 3.086 3.09 3.09 0 003.087 3.086zm0-4.114a1.03 1.03 0 011.028 1.029 1.03 1.03 0 01-1.029 1.028 1.03 1.03 0 01-1.028-1.028 1.03 1.03 0 011.029-1.029zm-8.229 4.114a3.09 3.09 0 003.086-3.085 3.09 3.09 0 00-3.086-3.086 3.09 3.09 0 00-3.086 3.086 3.09 3.09 0 003.086 3.086zm0-4.114a1.03 1.03 0 011.029 1.029 1.03 1.03 0 01-1.03 1.028 1.03 1.03 0 01-1.028-1.028 1.03 1.03 0 011.029-1.029zm16.458 4.114a3.09 3.09 0 003.086-3.085 3.09 3.09 0 00-3.086-3.086 3.09 3.09 0 00-3.086 3.086 3.09 3.09 0 003.086 3.086zm0-4.114a1.03 1.03 0 011.029 1.029 1.03 1.03 0 01-1.029 1.028 1.03 1.03 0 01-1.029-1.028 1.03 1.03 0 011.029-1.029z"/></g><defs><clipPath id="clip0"><path fill="#fff" d="M0 0h64v64H0z"/></clipPath></defs></svg>
